icons/OpenLotus/actions/16/artifact.svg

<?xml version="1.0" encoding="UTF-8" standalone="no"?>
<svg
   xmlns:dc="http://purl.org/dc/elements/1.1/"
   xmlns:cc="http://creativecommons.org/ns#"
   xmlns:rdf="http://www.w3.org/1999/02/22-rdf-syntax-ns#"
   xmlns:svg="http://www.w3.org/2000/svg"
   xmlns="http://www.w3.org/2000/svg"
   xmlns:sodipodi="http://sodipodi.sourceforge.net/DTD/sodipodi-0.dtd"
   xmlns:inkscape="http://www.inkscape.org/namespaces/inkscape"
   viewBox="0 0 16 16"
   version="1.1"
   id="svg8"
   sodipodi:docname="artifact.svg"
   inkscape:version="0.92+devel (ab74a354e7, 2017-08-02, custom)">
  <metadata
     id="metadata12">
    <rdf:RDF>
      <cc:Work
         rdf:about="">
        <dc:format>image/svg+xml</dc:format>
        <dc:type
           rdf:resource="http://purl.org/dc/dcmitype/StillImage" />
        <dc:title></dc:title>
      </cc:Work>
    </rdf:RDF>
  </metadata>
  <sodipodi:namedview
     pagecolor="#002466"
     bordercolor="#ffffff"
     inkscape:document-rotation="0"
     borderopacity="0.31764706"
     objecttolerance="10"
     gridtolerance="10"
     guidetolerance="10"
     inkscape:pageopacity="1"
     inkscape:pageshadow="2"
     inkscape:window-width="1920"
     inkscape:window-height="1051"
     id="namedview10"
     showgrid="false"
     borderlayer="true"
     inkscape:showpageshadow="false"
     inkscape:snap-page="true"
     inkscape:snap-grids="false"
     inkscape:snap-to-guides="false"
     inkscape:zoom="45.9375"
     inkscape:cx="8"
     inkscape:cy="8"
     inkscape:window-x="0"
     inkscape:window-y="0"
     inkscape:window-maximized="1"
     inkscape:current-layer="g827" />
  <defs
     id="defs3051">
    <style
       type="text/css"
       id="current-color-scheme">
      .ColorScheme-Text {
        color:#f2f2f2;
      }
      .ColorScheme-Highlight {
        color:#3daee9;
      }
      </style>
  </defs>
  <g
     id="g827"
     inkscape:label="#artifact">
    <path
       inkscape:label="#"
       sodipodi:nodetypes="ccccccccccccccc"
       inkscape:connector-curvature="0"
       id="path4"
       class="ColorScheme-Text"
       d="m 3,2 v 3 h 1 9 V 4 2 Z m 0,6 v 1 5 h 7 l 3,-3 V 8 H 4 Z"
       style="opacity:0.6;fill:currentColor;fill-opacity:1;stroke:none" />
    <path
       inkscape:label="#"
       id="path6"
       class="ColorScheme-Highlight"
       d="M 2,6 V 7 H 4 V 6 Z M 7,6 V 7 H 9 V 6 Z m 5,0 v 1 h 2 V 6 Z"
       style="fill:#00ff00;fill-opacity:1;stroke:none"
       inkscape:connector-curvature="0" />
    <rect
       inkscape:label="#boundary"
       y="0"
       x="0"
       height="16"
       width="16"
       id="rect822"
       style="fill:none;stroke-width:1.29999995" />
  </g>
</svg>

<svg xmlns="http://www.w3.org/2000/svg" viewBox="0 0 16 16">
  <defs id="defs3051">
    <style type="text/css" id="current-color-scheme">
      .ColorScheme-Text {
        color:#f2f2f2;
      }
      .ColorScheme-Highlight {
        color:#3daee9;
      }
      </style>
  </defs>
 <path style="fill:currentColor;fill-opacity:1;stroke:none" 
       d="M 3 2 L 3 5 L 4 5 L 13 5 L 13 4 L 13 2 L 3 2 z M 4 3 L 12 3 L 12 4 L 4 4 L 4 3 z M 3 8 L 3 9 L 3 14 L 10 14 L 13 11 L 13 8 L 4 8 L 3 8 z M 4 9 L 12 9 L 12 10 L 9 10 L 9 13 L 4 13 L 4 9 z "
     class="ColorScheme-Text"
     />
 <path style="fill:currentColor;fill-opacity:1;stroke:none" 
       d="M 2 6 L 2 7 L 4 7 L 4 6 L 2 6 z M 7 6 L 7 7 L 9 7 L 9 6 L 7 6 z M 12 6 L 12 7 L 14 7 L 14 6 L 12 6 z "
     class="ColorScheme-Highlight"
     />
</svg>
